!! 00000] TT[WS
!!!OTL: Mai laopuo
!!!ARE: Asia, China,ÿShanxi Yuanping
!! Ethnic Group: Han
!! WI, 222 (2)
!!!SCT: J0266
!!!YEM: Copyright 1995, estate of Helmut Schaffrath.
**kern
*ICvox
*Ivox
*M2/4
*k[b-]
*F:
{8ff
16ff
16ff
8dd
8a
=1
4.cc
8ff
=2
8dd
8cc
8a
8g
=3
4.f
8r}
=4
{8ff
8dd
8ff
8aa
=5
8gg
8dd
4cc
=6
8cc
8ff
8ee
8dd
=7
8cc
16cc
16a
8cc
8dd
=8
2cc}
==
!!!AGN: Xiaodiao. Qingge
!!!ONB: ESAC (Essen Associative Code) Database: CHINA
!!!AMT: simple duple
!!!AIN: vox
!!!EED: Helmut Schaffrath
!!!EEV: 1.0
*-
